X:281
L:1/4
Q:1/2=100
M:4/4
K:Amin
"_Time given as 2/4.No key given" E | c c c A | e/d/e/f/ e f/g/ | a c B e | c B/c/ A E | c c c A | 
 e/d/e/f/ e f/g/ | a c B A | A3 || a a3/2 A/ a | g g G g | g f e d | e4 | e e/e/ e a | d4 | 
 c c/c/ c e | B4 | c B A/B/c/d/ | e/d/e/f/ e a | g a b g | a2 a2 |]

